symbols/web/bluetooth_searching/materialsymbolsoutlined/bluetooth_searching_wght700_40px.svg

<svg xmlns="http://www.w3.org/2000/svg" height="40" width="40"><path d="m14.625 36.667.042-12.709-7.709 7.709-2.291-2.334L14 20l-9.333-9.333 2.291-2.334 7.709 7.709-.042-12.709h1.667l9.5 9.5L18.625 20l7.167 7.167-9.5 9.5Zm3.333-20.625 3.209-3.209-3.209-3.125Zm0 14.25 3.209-3.125-3.209-3.209Zm9.917-6.084L23.708 20l4.167-4.125q.375 1 .604 2.021.229 1.021.229 2.104 0 1.083-.229 2.146-.229 1.062-.604 2.062Zm4.792 4.709-2.209-2.209q.792-1.583 1.25-3.25.459-1.666.459-3.458 0-1.792-.459-3.479-.458-1.688-1.25-3.271l2.25-2.333q1.25 2.041 1.938 4.312.687 2.271.687 4.688 0 2.375-.666 4.645-.667 2.271-2 4.355Z"/></svg>

<svg xmlns="http://www.w3.org/2000/svg" height="40" width="40"><path d="M14.667 36.958V23.958L6.958 31.667L4.667 29.333L14 20L4.667 10.667L6.958 8.333L14.667 16.042V3.042H16L25.792 12.833L18.625 20L25.792 27.167L16 36.958ZM17.958 16.042 21.167 12.833 17.958 9.708ZM17.958 30.292 21.167 27.167 17.958 23.958ZM27.875 24.208 23.708 20 27.875 15.875Q28.25 16.875 28.479 17.896Q28.708 18.917 28.708 20Q28.708 21.083 28.479 22.146Q28.25 23.208 27.875 24.208ZM32.667 28.917 30.458 26.708Q31.25 25.125 31.708 23.458Q32.167 21.792 32.167 20Q32.167 18.208 31.708 16.521Q31.25 14.833 30.458 13.25L32.708 10.917Q33.958 12.958 34.646 15.229Q35.333 17.5 35.333 19.917Q35.333 22.292 34.667 24.562Q34 26.833 32.667 28.917Z"/></svg>
